dist/svgs/unicons/line/left-indent.svg

<svg xmlns="http://www.w3.org/2000/svg" viewBox="0 0 24 24"><path d="M3 7h18a1 1 0 000-2H3a1 1 0 000 2zm0 4h10a1 1 0 000-2H3a1 1 0 000 2zm18.77-1.31a1 1 0 00-1.41-.12l-2 1.66a1 1 0 000 1.54l2 1.66a1 1 0 00.64.24 1 1 0 00.77-.36 1 1 0 00-.13-1.41l-1.08-.9 1.08-.9a1 1 0 00.13-1.41zM21 17H3a1 1 0 000 2h18a1 1 0 000-2zM3 15h10a1 1 0 000-2H3a1 1 0 000 2z"/></svg>

<svg xmlns="http://www.w3.org/2000/svg" viewBox="0 0 24 24"><path d="M3,7H21a1,1,0,0,0,0-2H3A1,1,0,0,0,3,7Zm0,4H13a1,1,0,0,0,0-2H3a1,1,0,0,0,0,2ZM21.77,9.69a1,1,0,0,0-1.41-.12l-2,1.66a1,1,0,0,0,0,1.54l2,1.66a1,1,0,0,0,.64.24,1,1,0,0,0,.77-.36,1,1,0,0,0-.13-1.41L20.56,12l1.08-.9A1,1,0,0,0,21.77,9.69ZM21,17H3a1,1,0,0,0,0,2H21a1,1,0,0,0,0-2ZM3,15H13a1,1,0,0,0,0-2H3a1,1,0,0,0,0,2Z"/></svg>
